X: 1
T: Heckkif Ino
C: Larry Unger
B: Susie Petrov Her Book of Musick
R: jig
Z: 2005 John Chambers <jc:trillian.mit.edu>
M: 6/8
L: 1/8
K: Dmix
E \
| "D"D2D AGA | "C"E2D C2E | "D"D2D AGA | "C"cdc "G"BcB \
| "D"D2D AGA | "C"E2D C2E | "D"DA,D "C"EDC | "D"D3 D2 :|
K: Dm
A \
| "Dm"d2d "C"ede | "Dm"fed "Am"c2A | "Dm"d2A "Am"c2A | "Dm"d2A "Am"c2A \
| "Dm"d2d "C"ede | "Bb"fed "Am"c2A | "Dm"d2A "G"G2A | "C"c3- c2 |]
A \
| "Bb"d2d "C"ede | "Dm"fed "Am"c2A | "Dm"d2A "Am"c2A | "Dm"d2A "Am"c2A \
| "Dm"ded "C"cdc | "Bb"BcB "F"A2c | "Dm"d2A "A7"A=B^c | "Dm"d3 d2 |]
